packages/heroicons/src/interstate/outline/hand-thumb-down.svg

<svg width="16" height="17" viewBox="0 0 16 17" fill="none" xmlns="http://www.w3.org/2000/svg">
<g clip-path="url(#clip0_1243_4997)">
<path d="M4.6668 10.4703H2.35245C1.59233 10.4703 0.911956 9.95645 0.831482 9.2006C0.798198 8.88799 0.781128 8.57053 0.781128 8.24908C0.781128 6.14071 1.51551 4.20387 2.74244 2.68039C3.02942 2.32405 3.47307 2.14081 3.93061 2.14081L6.90403 2.14081C7.26214 2.14081 7.6179 2.19854 7.95763 2.31178L10.2636 3.08043C10.6033 3.19367 10.9591 3.2514 11.3172 3.2514L12.2754 3.2514M4.6668 10.4703C5.12458 10.4703 5.40043 11.0063 5.2038 11.4197C4.86039 12.1416 4.66821 12.9494 4.66821 13.8021C4.66821 14.7221 5.41406 15.468 6.33411 15.468C6.64079 15.468 6.8894 15.2193 6.8894 14.9127V14.4437C6.8894 14.0198 6.97028 13.5999 7.1277 13.2063C7.35268 12.6439 7.81662 12.2208 8.3513 11.9361C9.17598 11.4969 9.89745 10.8895 10.4699 10.1596C10.8383 9.68978 11.377 9.35968 11.974 9.35968H12.2581M4.6668 10.4703H6.29709M12.2754 3.2514C12.2833 3.28843 12.2958 3.32516 12.3134 3.36083C12.7515 4.24878 12.9977 5.24841 12.9977 6.30554C12.9977 7.40633 12.7308 8.44477 12.2581 9.35968M12.2754 3.2514C12.2184 2.98141 12.4109 2.69611 12.701 2.69611H13.3731C14.0311 2.69611 14.6414 3.07965 14.8335 3.709C15.0841 4.53035 15.2189 5.4022 15.2189 6.30554C15.2189 7.45498 15.0006 8.55344 14.6032 9.56172C14.3774 10.1349 13.7993 10.4703 13.1833 10.4703H12.4038C12.0544 10.4703 11.8521 10.0587 12.0335 9.76005C12.1128 9.62947 12.1877 9.49594 12.2581 9.35968" stroke="black" stroke-width="1.5" stroke-linecap="round" stroke-linejoin="round"/>
</g>
<defs>
<clipPath id="clip0_1243_4997">
<rect width="16" height="16" fill="white" transform="translate(16 16.5471) rotate(-180)"/>
</clipPath>
</defs>
</svg>

<svg viewBox="0 0 16 17">
  <g clip-path="url(#a)">
    <path stroke="currentColor" stroke-linecap="round" stroke-linejoin="round" stroke-width="1.5" d="M4.667 10.512H2.352c-.76 0-1.44-.514-1.52-1.27a8.847 8.847 0 0 1 1.911-6.52c.286-.357.73-.54 1.188-.54h2.973c.358 0 .714.058 1.054.171l2.306.769c.34.113.695.17 1.053.17h.958m-7.608 7.22c.458 0 .733.536.537.95a5.531 5.531 0 0 0-.536 2.381c0 .92.746 1.666 1.666 1.666a.555.555 0 0 0 .555-.555v-.469c0-.424.081-.844.239-1.237.225-.563.689-.986 1.223-1.27A6.694 6.694 0 0 0 10.47 10.2c.368-.47.907-.8 1.504-.8h.284m-7.591 1.11h1.63m5.978-7.218c.008.037.02.074.038.11.438.887.685 1.887.685 2.944 0 1.1-.267 2.14-.74 3.054m.017-6.108c-.057-.27.136-.556.426-.556h.672c.658 0 1.268.384 1.46 1.013.251.822.386 1.694.386 2.597a8.86 8.86 0 0 1-.616 3.256c-.226.573-.804.909-1.42.909h-.78c-.349 0-.55-.412-.37-.71.08-.131.155-.265.225-.4"/>
  </g>
  <defs>
    <clipPath id="a">
      <path d="M0 0h16v16H0z" transform="rotate(-180 8 8.294)"/>
    </clipPath>
  </defs>
</svg>
